X:6
T:Lady Jane Taylor - of Rothimay
R:march
C:William Marshall
S:1822 Collection p46
B:Athole, Kerr
D:Theresa Morrison
N:Although Marshalll called this Lady Jane Taylor's Strathspey it can be interpretd more as a march or country dance
Z:Paul Stewart Cranford (P.S.C.), <http://www.cranfordpub.com>
M:C
L:1/8
Q:196
K:C
G/F/|E>Gc>G EGcG|EG cB/c/ dD DG/F/|E>Gc>E FAdf|f/e/d/c/ G/c/B/d/ c<CC:|
|:e/f/|g>c e/f/g/e/ a/g/f/e/ de/f/|g>c a/g/f/e/ f<d de/f/|c>d c/d/e/f/ g/f/e/d/ cG|c>A G/A/F/G/ E<C Ce/f/|
g>c e/f/g/e/ a/g/f/e/ de/f/|g>c a/g/f/e/ f<d de/f/|g/f/e/g/ f/e/d/f/ e/d/c/e/ d/c/B/d/|c/B/c/A/ G/A/F/G/ E<CC|]

